X:348
T:Lass O' Gowrie #1, The 
C:Joe Buchanan's Scottish Tome - Page 142.3
I:142 3
U: T=!tenuto!
Z:Carl Allison
R:March
L:1/4
M:4/4
K:D
A/G/ | "D"F A A "A7"(B/<c/) | "D"d> e "D"d c | "G"B> A Bd | "Em"e> "A7"f e (A/G/) |
"D"F A A "A7"B/c/ | "D"d> e "D"f e | "G"Td/c/TB/A/ "D"d f | "A7"e2 "D"d :|
g | "D"f a d> e | "D"f/e/f/g/ "D7"a g/f/ | "Em"g b e> f | "Em"g/f/g/a/ "A7"b a/g/ |
"D"f a "A7"e f | "Bm"d> e "F#7"f e | "G"Td/c/TB/A/ "D"d F | "Em"E2 "A7/D"D2 :|

